src/assets/animalImage/img/rooster.svg

<?xml version="1.0" encoding="UTF-8" standalone="no"?><!DOCTYPE svg PUBLIC "-//W3C//DTD SVG 1.1//EN" "http://www.w3.org/Graphics/SVG/1.1/DTD/svg11.dtd"><svg width="100%" height="100%" viewBox="0 0 313 297" version="1.1" xmlns="http://www.w3.org/2000/svg" xmlns:xlink="http://www.w3.org/1999/xlink" xml:space="preserve" style="fill-rule:evenodd;clip-rule:evenodd;stroke-linejoin:round;stroke-miterlimit:1.41421;"><path d="M282.429,38.219c0,3.706 -3,6.709 -6.706,6.709c-3.7,0 -6.703,-3.003 -6.703,-6.709c0,-3.703 3.003,-6.703 6.703,-6.703c3.706,0 6.706,3 6.706,6.703Z" style="fill:#492b26;fill-rule:nonzero;"/><path d="M274.438,44.131c-2.596,0 -4.696,-2.106 -4.696,-4.694c0,-2.593 2.109,-4.693 4.696,-4.693c2.588,0 4.688,2.1 4.688,4.693c0,2.588 -2.088,4.694 -4.688,4.694Zm-29.331,243.85c-8.031,1.235 -18.462,-1.659 -25.497,-3.725c-2.922,-0.862 -5.687,-1.659 -6.793,-1.659l-0.757,0.106l-0.737,-0.462c-10.05,-7.272 -15.747,-19.085 -16.966,-35.088l-0.144,-1.937l1.929,-0.104c12.746,-0.703 20.512,-12.318 28.006,-23.55c5.687,-8.518 11.053,-16.534 18.472,-20.081l0.628,-0.172c33.578,-3.443 52.422,-31.331 57.594,-85.231c1.534,-15.919 -3.172,-25.359 -8.154,-35.369c-2.3,-4.65 -4.7,-9.443 -6.584,-15.056l-0.625,-1.869l1.881,-0.575c2.01,-0.59 4.241,-2.047 6.588,-3.572c4.106,-2.637 8.728,-5.649 14.256,-5.649c1.538,0 3.047,0.234 4.566,0.706c-0.997,-4.81 -5.1,-8.403 -9.107,-11.91c-3.421,-2.997 -6.65,-5.822 -8.093,-9.39l-0.444,-1.132l0.841,-0.893c1.415,-1.535 3.44,-13.588 3.531,-19.278c-1.172,0.131 -3.819,1.737 -5.591,2.803c-1.937,1.184 -3.194,1.909 -4.228,2.137l-3.491,0.769l1.294,-3.325c0.741,-1.872 -0.034,-9.059 -1.75,-14.475c-1.919,0.787 -2.387,3.719 -2.606,8.991c-0.128,3.378 -0.234,6.05 -1.828,7.412l-1.513,1.288l-0.978,-1.26l-1.09,0.022c-3.069,0 -7.213,-1.316 -12.069,-11.6l-0.056,-0.112c-0.11,3.75 0.356,10.737 1.296,18.275l0.235,1.843l-1.831,0.278c-17.444,2.66 -27.866,14.569 -37.872,27.575c-3.075,4.01 -5.772,10.891 -8.622,18.185c-6.956,17.762 -15.616,39.875 -36.697,39.875c-1.625,0.212 -3.541,0.334 -5.472,0.334c-26.341,0 -52.916,-22.025 -72.312,-38.119c-4.719,-3.906 -9.172,-7.6 -12.994,-10.45l-0.416,-0.418c-1.39,-1.972 -2.915,-4.366 -4.544,-6.953c-7.353,-11.563 -17.428,-27.604 -30.04,-25.957c-3.119,0.4 -5.328,2.566 -7.891,5.06c-2.756,2.693 -5.884,5.753 -10.74,7.028c-14.894,3.628 -38.254,12.619 -37.682,21.309c0.591,8.916 33.857,21.96 54.691,28.075l-1.059,3.678c-0.194,-0.072 -19.838,-5.512 -29.922,-5.512c-3.578,0 -4.303,0.703 -4.325,0.744c0,0 -0.01,1.462 4.668,5.475c2.338,1.987 9.622,4.747 17.341,7.65c12.35,4.656 26.325,9.918 30.981,15.868l0.738,0.944l-0.431,1.344c-0.216,0.456 -0.794,1.228 -2.21,1.228c-1.781,0 -5.997,-1.169 -13.297,-3.213c-8.515,-2.393 -19.109,-5.378 -23.603,-5.378c4.766,6.769 23.8,22.463 31.097,28.225l0.438,0.478l4.084,6.554l-0.869,1.059c-2.653,3.253 11.231,20.294 15.947,24.303l7.513,6.416l-9.36,-3.153l-0.265,-0.075c-0.007,0.425 0.028,1.018 0.062,1.431c0.038,0.478 0.059,0.947 0.059,1.406c5.085,4.525 7.222,9.497 9.291,14.306c1.444,3.353 2.788,6.535 5.119,9.66c5.8,7.793 16.425,10.875 27.662,14.134c6.244,1.822 12.788,3.731 18.85,6.597l0.138,-1.156c16.3,1.759 40.303,-17.507 49.697,-31.575c12.247,-19.141 6.512,-35.181 -0.116,-53.756c-0.859,-2.391 -1.728,-4.822 -2.572,-7.288c-0.387,-1.128 -0.781,-2.275 -1.153,-3.431l-0.206,-0.641l3.644,-1.159c1.231,3.865 2.565,7.587 3.868,11.243c6.691,18.707 13.013,36.375 -0.275,57.119c-9.225,13.847 -30.803,31.578 -48.143,33.275c7.85,4.713 14.421,11.65 17.64,23.088c0.678,3.475 1.866,6.231 3.11,9.168c2.171,5.063 4.418,10.279 3.696,18.475l-0.053,0.657l-0.475,0.503c-2.275,2.334 -6.906,3.247 -11.847,4.187c-2.7,0.538 -5.787,1.119 -8.143,1.975c3.309,-0.287 6.859,-1.022 10.322,-1.709l0.137,-0.016c4.681,-0.972 9.541,-1.937 13.916,-1.937c4.165,0 7.478,0.865 10.137,2.684l1.413,0.947l-0.788,1.509c-0.74,1.416 -1.694,2.482 -2.615,3.532c-0.619,0.672 -1.188,1.297 -1.647,1.993c1.781,-0.159 3.415,-0.943 5.284,-1.834c2.244,-1.075 4.803,-2.303 7.981,-2.441c0.391,0 0.794,-0.018 1.175,-0.018c6.863,0 13.547,2.615 19.45,4.915c4.907,1.925 9.544,3.722 13.45,3.744c-0.562,-1.022 -0.909,-2.122 -0.825,-3.053c0.116,-1.241 0.966,-2.659 3.025,-2.888c1.51,-0.306 4.857,-0.287 8.807,-0.156c1.912,0.069 3.946,0.141 5.968,0.141c3.06,0 7.019,-0.141 9.966,-1.031c-0.466,-0.157 -0.95,-0.341 -1.456,-0.494c-2.078,-0.703 -4.46,-1.481 -5.81,-3.628" style="fill:#e07f27;fill-rule:nonzero;"/><path d="M287.845,72.356c0,0 -71.591,62.806 -45.797,128.322c0,0 29.325,4.563 47.937,-34.603c0,0 22.785,-51.891 4.525,-81.672l-6.665,-12.047Z" style="fill:#fae3d0;fill-rule:nonzero;"/><path d="M265.292,25.137l0.356,-20.284l12.069,11.6c0,0 4.246,-13.884 8.015,-16.453c0,0 4.872,9.8 0.456,17.8l13.31,-5.709c0,0 3.64,8.921 -1.391,15.771c0,0 -9.831,3.604 -15.662,0c-5.832,-3.612 -17.153,-2.725 -17.153,-2.725Z" style="fill:#c53226;fill-rule:nonzero;"/><path d="M298.432,56.903l3.169,-15.95c0,0 7.603,6.016 11.169,13.741c0,0 -9.853,-0.528 -14.338,2.209Z" style="fill:#c53226;fill-rule:nonzero;"/></svg>

<?xml version="1.0" encoding="UTF-8" standalone="no"?>
<!DOCTYPE svg PUBLIC "-//W3C//DTD SVG 1.1//EN" "http://www.w3.org/Graphics/SVG/1.1/DTD/svg11.dtd">
<svg width="100%" height="100%" viewBox="0 0 313 313" version="1.1" xmlns="http://www.w3.org/2000/svg" xmlns:xlink="http://www.w3.org/1999/xlink" xml:space="preserve" xmlns:serif="http://www.serif.com/" style="fill-rule:evenodd;clip-rule:evenodd;stroke-linejoin:round;stroke-miterlimit:1.41421;">
    <g transform="matrix(1,0,0,1,0,8)">
        <path d="M282.429,38.219C282.429,41.925 279.429,44.928 275.723,44.928C272.023,44.928 269.02,41.925 269.02,38.219C269.02,34.516 272.023,31.516 275.723,31.516C279.429,31.516 282.429,34.516 282.429,38.219Z" style="fill:rgb(73,43,38);fill-rule:nonzero;"/>
    </g>
    <g transform="matrix(1,0,0,1,0,8)">
        <path d="M274.438,44.131C271.842,44.131 269.742,42.025 269.742,39.437C269.742,36.844 271.851,34.744 274.438,34.744C277.026,34.744 279.126,36.844 279.126,39.437C279.126,42.025 277.038,44.131 274.438,44.131ZM245.107,287.981C237.076,289.216 226.645,286.322 219.61,284.256C216.688,283.394 213.923,282.597 212.817,282.597L212.06,282.703L211.323,282.241C201.273,274.969 195.576,263.156 194.357,247.153L194.213,245.216L196.142,245.112C208.888,244.409 216.654,232.794 224.148,221.562C229.835,213.044 235.201,205.028 242.62,201.481L243.248,201.309C276.826,197.866 295.67,169.978 300.842,116.078C302.376,100.159 297.67,90.719 292.688,80.709C290.388,76.059 287.988,71.266 286.104,65.653L285.479,63.784L287.36,63.209C289.37,62.619 291.601,61.162 293.948,59.637C298.054,57 302.676,53.988 308.204,53.988C309.742,53.988 311.251,54.222 312.77,54.694C311.773,49.884 307.67,46.291 303.663,42.784C300.242,39.787 297.013,36.962 295.57,33.394L295.126,32.262L295.967,31.369C297.382,29.834 299.407,17.781 299.498,12.091C298.326,12.222 295.679,13.828 293.907,14.894C291.97,16.078 290.713,16.803 289.679,17.031L286.188,17.8L287.482,14.475C288.223,12.603 287.448,5.416 285.732,0C283.813,0.787 283.345,3.719 283.126,8.991C282.998,12.369 282.892,15.041 281.298,16.403L279.785,17.691L278.807,16.431L277.717,16.453C274.648,16.453 270.504,15.137 265.648,4.853L265.592,4.741C265.482,8.491 265.948,15.478 266.888,23.016L267.123,24.859L265.292,25.137C247.848,27.797 237.426,39.706 227.42,52.712C224.345,56.722 221.648,63.603 218.798,70.897C211.842,88.659 203.182,110.772 182.101,110.772C180.476,110.984 178.56,111.106 176.629,111.106C150.288,111.106 123.713,89.081 104.317,72.987C99.598,69.081 95.145,65.387 91.323,62.537L90.907,62.119C89.517,60.147 87.992,57.753 86.363,55.166C79.01,43.603 68.935,27.562 56.323,29.209C53.204,29.609 50.995,31.775 48.432,34.269C45.676,36.962 42.548,40.022 37.692,41.297C22.798,44.925 -0.562,53.916 0.01,62.606C0.601,71.522 33.867,84.566 54.701,90.681L53.642,94.359C53.448,94.287 33.804,88.847 23.72,88.847C20.142,88.847 19.417,89.55 19.395,89.591C19.395,89.591 19.385,91.053 24.063,95.066C26.401,97.053 33.685,99.813 41.404,102.716C53.754,107.372 67.729,112.634 72.385,118.584L73.123,119.528L72.692,120.872C72.476,121.328 71.898,122.1 70.482,122.1C68.701,122.1 64.485,120.931 57.185,118.887C48.67,116.494 38.076,113.509 33.582,113.509C38.348,120.278 57.382,135.972 64.679,141.734L65.117,142.212L69.201,148.766L68.332,149.825C65.679,153.078 79.563,170.119 84.279,174.128L91.792,180.544L82.432,177.391L82.167,177.316C82.16,177.741 82.195,178.334 82.229,178.747C82.267,179.225 82.288,179.694 82.288,180.153C87.373,184.678 89.51,189.65 91.579,194.459C93.023,197.812 94.367,200.994 96.698,204.119C102.498,211.912 113.123,214.994 124.36,218.253C130.604,220.075 137.148,221.984 143.21,224.85L143.348,223.694C159.648,225.453 183.651,206.187 193.045,192.119C205.292,172.978 199.557,156.938 192.929,138.363C192.07,135.972 191.201,133.541 190.357,131.075C189.97,129.947 189.576,128.8 189.204,127.644L188.998,127.003L192.642,125.844C193.873,129.709 195.207,133.431 196.51,137.087C203.201,155.794 209.523,173.462 196.235,194.206C187.01,208.053 165.432,225.784 148.092,227.481C155.942,232.194 162.513,239.131 165.732,250.569C166.41,254.044 167.598,256.8 168.842,259.737C171.013,264.8 173.26,270.016 172.538,278.212L172.485,278.869L172.01,279.372C169.735,281.706 165.104,282.619 160.163,283.559C157.463,284.097 154.376,284.678 152.02,285.534C155.329,285.247 158.879,284.512 162.342,283.825L162.479,283.809C167.16,282.837 172.02,281.872 176.395,281.872C180.56,281.872 183.873,282.737 186.532,284.556L187.945,285.503L187.157,287.012C186.417,288.428 185.463,289.494 184.542,290.544C183.923,291.216 183.354,291.841 182.895,292.537C184.676,292.378 186.31,291.594 188.179,290.703C190.423,289.628 192.982,288.4 196.16,288.262C196.551,288.262 196.954,288.244 197.335,288.244C204.198,288.244 210.882,290.859 216.785,293.159C221.692,295.084 226.329,296.881 230.235,296.903C229.673,295.881 229.326,294.781 229.41,293.85C229.526,292.609 230.376,291.191 232.435,290.962C233.945,290.656 237.292,290.675 241.242,290.806C243.154,290.875 245.188,290.947 247.21,290.947C250.27,290.947 254.229,290.806 257.176,289.916C256.71,289.759 256.226,289.575 255.72,289.422C253.642,288.719 251.26,287.941 249.91,285.794" style="fill:rgb(224,127,39);fill-rule:nonzero;"/>
    </g>
    <g transform="matrix(1,0,0,1,0,8)">
        <path d="M287.845,72.356C287.845,72.356 216.254,135.162 242.048,200.678C242.048,200.678 271.373,205.241 289.985,166.075C289.985,166.075 312.77,114.184 294.51,84.403L287.845,72.356Z" style="fill:rgb(250,227,208);fill-rule:nonzero;"/>
    </g>
    <g transform="matrix(1,0,0,1,0,8)">
        <path d="M265.292,25.137L265.648,4.853L277.717,16.453C277.717,16.453 281.963,2.569 285.732,0C285.732,0 290.604,9.8 286.188,17.8L299.498,12.091C299.498,12.091 303.138,21.012 298.107,27.862C298.107,27.862 288.276,31.466 282.445,27.862C276.613,24.25 265.292,25.137 265.292,25.137Z" style="fill:rgb(197,50,38);fill-rule:nonzero;"/>
    </g>
    <g transform="matrix(1,0,0,1,0,8)">
        <path d="M298.432,56.903L301.601,40.953C301.601,40.953 309.204,46.969 312.77,54.694C312.77,54.694 302.917,54.166 298.432,56.903Z" style="fill:rgb(197,50,38);fill-rule:nonzero;"/>
    </g>
</svg>
